X: 30532
T: WEST'S HORNPIPE
C:
%R: hornpipe, reel
B: Elias Howe "The Musician's Companion" Part 3 1844 p.53 #2
S: http://imslp.org/wiki/The_Musician's_Companion_(Howe,_Elias)
S: https://archive.org/stream/firstthirdpartof03howe/#page/66/mode/1up
Z: 2015 John Chambers <jc:trillian.mit.edu>
M: 2/4
L: 1/16
K: D
% - - - - - - - - - - - - - - - - - - - - - - - - -
|:\
d2FG AFAF | d2FG A3d | BAGF E2ef | gfge dcBA |\
d2FG AFAF | d2FG A3d | BAGF E2ef | gedc d4 :|
|:\
f2df dfdf | e2ce cece | d2Bd BdBd | edcB A4 |\
dBB2 cAA2 | dBB2 cAA2 | dcdA FAFD | A2A2A2 :|
% - - - - - - - - - - - - - - - - - - - - - - - - -
